X:1
T: Caithness Reel
C: RSCDS Bk 18 (orig. Eb), setting by B. McOwen
C: arr. T. Traub 7-26-08
%
K: F
L: 1/8
M: 4/4
R: reel
fe|"Bb"d2 cA "C"GFDE|"F"F2 FA cAcf|"Bb"d2 cA "C"GFDd|"Dm"fdfA "C"G2 fe|"Bb"d2 cA "C"GFDE|"F"F2 FA cAcf|
"Bb"d2 cA "C"GFDd|"Dm"fd"Am"ec "Dm"d2 de|| "F"fgag f2 fe|"Bb"dcdf "C"g2 ga|"Dm"fgag f2 fe|
"Am"dcAc "Dm"d2 de|"F"fgag f2 fe|"Bb"dcdf "C"g2 ga|"Dm"faga fgef|"Am"dcAc "Dm"d2 |]
